X:1
T:Title
%%score { ( 1 3 ) | ( 2 4 ) }
L:1/8
M:4/4
K:Ab
V:1 treble nm="Grand Piano"
V:3 treble 
V:2 bass 
V:4 bass 
V:1
 z4 z2[Q:1/4=108] E2 | c3 c B2 A2 | A3 G G2 E2 | [Gd]3 [Gd] [Ac]2 [GB]2 | c6 E2 | e3 c A2 E2 | %6
 G3 F F2 F2 | E2 d2 c3 B |[M:3/4] [CEA]6 |[M:12/8] z3 [Fd]6- [Fd] z z | %10
 [Fd][A,FA][=EB] [_Ec]3- [Ec]6 | z3 [Ac]6- [Ac] z z | z3 [Ge]3- [Ge]6 | EFG A3 [CEA]6 | %14
 [CA][DGB][E_Gc] [DFd]3 [Fd]6 | [FB]3 [Ec]3- [Ec]2 [Fd] c2 B | A2 B c3- c6 | cBc [Fd]3 [Fd]6 | %18
 [Fd][FA][=EB] [_Ec]3 [Ec]6 | [EA]3 [FB]3- [FB]2 [FB] c2 B |[M:9/8] A2 G [CEA]6- | [CEA]3 z3 z3 |] %22
V:2
 z4 z2 E,2 | [A,E]3 [A,E] [A,D]2 [A,C]2 | [E,A,C]3 [E,B,D] [E,B,D]2 [E,B,D]2 | %3
 [E,B,]3 [E,B,] [E,E]2 [E,E]2 | [A,EA]6 [A,C]2 | [A,CA]3 [A,EA] [A,CE]2[K:bass] [C,A,]2 | %6
 [D,B,E]3 [D,A,D] [D,A,D]2 [=D,A,_C]2 | [E,A,C]2 [E,G,E]2 [E,A,E]3 [E,DE] |[M:3/4] A,,6 | %9
[M:12/8] A,2 A, [D,A,]3 D,3 D,[D,A,][D,A,] | z3 A,6 z3 | A,3 [F,A,]3 F,3 F,[F,A,][F,A,] | %12
 z3 B,6 z3 | [E,G,][E,A,=D][E,B,_D] [A,C]3 A,,6 | A,,A,,A,, D,3 [D,A,]6 | %15
 [D,D]3 [E,A,]3- [E,A,]2 [E,A,] [E,A,E]2 [E,G,D] | [E,A,C]2 [E,G,E][K:treble] [A,E]3- [A,E]6 | %17
 [A,EA][A,EG][A,E_G][K:bass] [D,D]3 [D,A,]6 | [D,A,][D,A,][D,G,] [A,,A,]3 [A,,A,]6 | %19
 C,3 [D,D]3- [D,D]2 [D,D] [E,A,E]2 [E,G,D] |[M:9/8] [E,A,C]2 [E,DE] B,,6- | B,,3 z3 z3 |] %22
V:3
 x8 | x8 | x8 | x8 | x8 | x8 | x8 | x8 |[M:3/4] x6 |[M:12/8] [CEA]2 [CEA] z3 A,3 A,[Fd][Fd] | x12 | %11
 [Ec]3 z3 A,3 A,[Ac][Ac] | [A=d][Ac][Ad] z3 E, .G,2 B,3 | x12 | x12 | x12 | x12 | x12 | x12 | x12 | %20
[M:9/8] x9 | x9 |] %22
V:4
 x8 | x8 | x8 | x8 | x8 | x6[K:bass] x2 | x8 | x8 |[M:3/4] x6 |[M:12/8] x12 | %10
 [D,A,]D,D, A,,3 A,,C,E, A,3 | x12 | [B,,B,][B,,B,][B,,B,] E,3 z3 E,3 | x12 | x12 | x12 | %16
 x3[K:treble] x9 | x3[K:bass] x9 | x12 | x12 |[M:9/8] x9 | x9 |] %22

